X:4
T:4. Dear Pity
C:John Wilbye
%%score 1 2 3
%#Noindex
%%transpose 7
L:1/4
M:4/4
I:linebreak $
K:F
V:1 treble nm="Treble I"
%%MIDI program 73
V:2 treble nm="Treble II"
%%MIDI program 73
V:3 bass nm="Bass" octave=-1
%%MIDI program 73
V:1
 c2 c d | c2 z c | c2 z A | c3 B |$ c A G2 | A2 A2 | A G A2 | z G A2- |$ A G A F | E F2 E | %10
w: Dear pi- ty,|how, Ah!|how, Ah!|how, wouldst|thou be- come|her! Dear|pi- ty, how,|Ah! how,|_ wouldst thou be-|-- come|
 F2 c2 | d2 B2 |$ c c c3/2 d/ | e f d2 | c2 z2 | _e3 d/c/ | B2 d2- |$ d c/B/ A2 | A2 z G/F/ | %19
w: her! That|best be-|com- eth beau- ty's|best at- tir-|ing;|Shall my de-|sert, shall|_ my de- sert,|shall my de-|
 G g2 f/e/ |$ d c d2 | e f3/2 f/ e | f2 z2 | f f2 e |$ d d c c | =B c c B | c2 z2 | c c2 B |$ %28
w: sert, shall my de-|sert de- serve|no fa- vour from|her?|But still to|waste my- self in|deep ad- mir- -|ing,|but still to|
 A F F G | E F2 E | F F F F | c3 c |$ A F2 A/A/ | B2 F2 | z f f c | d3 c |$ d B2 A/A/ | B2 F2 | %38
w: waste my- self in|deep ad- mir-|ing, Like him that|calls to|e- cho to re-|lieve him,|like him that|calls to|e- cho to re-|lieve him,|
 z2 z c | c3/2 B/ A3/2 G/ |$ F f f3/2 _e/ | d d c2- | c B B2- | B2 A2 |$ G4 | A4 | z4 | z c c c |$ %48
w: Still|tells and hears the|tale, still tells and|hears the tale,|_ Oh! tale|_ that|grieves|him.||Like him that|
 f3 f | d B2 A/A/ | B2 F2 | z f f c |$ d3 c | d B2 A/A/ | G G z f | f3/2 _e/ d3/2 c/ |$ %56
w: calls to|e- cho to re-|lieve him,|like him that|calls to|e- cho to re-|lieve him, Still|tells and hears the|
 B F F3/2 _E/ | D D G F | E2 F2- | F2 E2 | F4- |$ F4 |] %62
w: tale, still tells and|hears the tale, Oh!|tale that|_ grieves|him.|_|
V:2
 z2 A2 | A G A2 | z G A2- | A G A F |$ E F2 E | F c c d | c2 z c | c2 z A |$ c3 =B | c A G2 | A4 | %11
w: Dear|pi- ty, how,|Ah! how,|_ wouldst thou be|__ come|her! Dear pi- ty,|how, Ah!|how, Ah!|how wouldst|thou be- come|her!|
 z F F F |$ E3/2 F/ G A/B/ | c A G2 | G2 c2- | c B/A/ G2- | G B2 A/G/ |$ F2 f2- | f e/d/ c c- | %19
w: That best be-|com- eth beau ty's _|best at- tir-|ing; Shall|_ my de- sert,|_ shall my de-|sert, shall|_ my de- sert, shall|
 c B/A/ G A |$ =B c c B | c A G2 | A3/2 G/ A/B/ c- | c/c/ =B c2 |$ B B2 A | G _E D D | E3/2 F/ G2 | %27
w: _ my de- sert, shall|my de- sert de-|serve no fa-|vour, de- serve no fa-|- vour from her?|But still to|waste my- self in|deep ad- mir-|
 F f e d |$ f c d d | c A G2 | A4 | z4 |$ z c c c | f3 f | d B2 A/A/ | B2 F2 |$ z f f c | d3 c | %38
w: ing, But still to|waste my self in|deep ad- mir-|ing,||Like him that|calls to|e- cho to re-|lieve him,|like him that|calls to|
 d B2 A/A/ | G G z f |$ f3/2 _e/ d3/2 c/ | B F F3/2 _E/ | D D G F | E2 F2- |$ F2 E2 | F F F F | %46
w: e- cho to re-|lieve him, Still|tells and hears the|tale, still tells and|hears the tale, Oh!|tale that|_ grieves|him. Like him that|
 c3 c | A F2 A/A/ |$ B2 F2 | z f f c | d3 c | d B2 A/A/ |$ B2 F2 | z z2 c | c3/2 B/ A3/2 G/ | %55
w: calls to|e- cho to re-|lieve him,|like him that|calls to|e- cho to re-|lieve him,|Still|tells and hears the|
 F f f3/2 _e/ |$ d d c2- | c B B2- | B2 A2 | G4 | A4- |$ A4 |] %62
w: tale, still tells and|hears the tale,|_ Oh! tale|_ that|grieves|him.|_|
V:3
 z2 F2 | F E F2 | z C F2- | F E F D |$ C4 | F,2 F2 | F E F2 | z C F2- |$ F E F D | C4 | F,2 F,2 | %11
w: Dear|pi- ty, how,|Ah! how,|_ wouldst thou be-|come|her! Dear|pi- ty, how,|Ah! how|_ wouldst thou be-|come|her! That|
 B,2 D2 |$ C3/2 D/ E F | C F, G,2 | C4 | C3 B,/A,/ | G,2 B,2- |$ B, A,/G,/ F,2 | F3 E/D/ | %19
w: best be-|com- eth beau- ty's|best at- tir-|ing;|Shall my de-|sert, shall|_ my de- sert,|shall my de-|
 C3/2 D/ E F |$ G A G2 | C4 | F F2 E | D2 C2 |$ D B, F, F, | G,2 G,2 | C C2 B, | A,2 G,2 |$ %28
w: sert de- serve no|fa- vour from|her?|But still to|waste my-|self in deep ad-|mir ing,|but still to|waste my-|
 F, A, B, B, | C4 | F,2 z2 | z C C C |$ F3 F | D B,2 A,/A,/ | B,2 F,2 | B, B,2 A, |$ B,2 F2 | %37
w: self in deep ad-|mir-|ing,|Like him that|calls to|e- cho to re-|lieve him,|like him that|calls to|
 B, B,2 A,/A,/ | B,2 F,2 | C2 F3/2 _E/ |$ D3/2 C/ B,2- | B,2 A,2 | B,2 B,2 | C4- |$ C4 | F,2 z2 | %46
w: e- cho to re-|lieve him,|Still tells and|hears the tale,|_ Oh!|tale that|grieves|_|him.|
 z C C C | F3 F |$ D B,2 A,/A,/ | B,2 F,2 | B, B,2 A, | B,2 F2 |$ B, B,2 A,/A,/ | B,2 F,2 | %54
w: Like him that|calls to|e- cho to re-|lieve him,|like him that|calls to|e- cho to re-|lieve him,|
 C2 F3/2 _E/ | D3/2 C/ B,2- |$ B,2 A,2 | B,2 B,2 | C4- | C4 | F,4- |$ F,4 |] %62
w: Still tells and|hears the tale,|_ Oh!|tale that|grieves|_|him.|_|


